X:1
T:Title
%%score 1 2
L:1/8
Q:1/4=100
M:4/4
K:A
V:1 treble nm="Grand Piano, Soprano"
V:2 bass nm="Choir Pad, Bass"
V:1
 [CE]>[CE] [CE]2 [Ec]2 [Ec]2 | [EB]2 [FA][FA] [DF]2 [FA]2- | [FA][FA] [CE]2- [CE][CE][EA][EA] | %3
w: By~Charles~Edward~Pollock,~1880 * * * *|||
 [Ec]2 [EB]6 | [Ec]>[DB] [CA]2 [CA]2 [CA]2 | [CE][CE][DF][DF] [DF]2 [FA]2 | %6
w: |||
 [DF][DF] [CE]2- [CE][Ec] [Ec]2 | [DB]2 [CA]6 | z2 [EB]2 [EB]>[EB] [EB]2- | %9
w: |||
 [EB][EB] [Ec]2 [Ae]2 [Ae]2- | [Ae]2 [Ec][Ec] [Ec][Ae] [Ae]2 | [Ec]2 [EB]6 | %12
w: |||
 z2 [CE]2 [Ec][Ec] [Ec]2 | [EB]2 [FA]2 [DF]2 [FA]2- | [FA]2 [CE][CA] [CA][DB] [Ec]2 | %15
w: |||
 [DB]2 [CA]6- | [CA]2 z2 z4 |] %17
w: ||
V:2
 [A,,A,]>[A,,A,] [A,,A,]2 [A,,A,]2 [A,,A,]2 | [C,A,]2 [D,A,][D,A,] [D,A,]2 [D,A,]2- | %2
 [D,A,][D,A,] [A,,A,]2- [A,,A,][A,,A,][C,A,][C,A,] | [A,,A,]2 [E,G,]6 | %4
 [E,A,]>[E,G,] [A,,A,]2 [A,,A,]2 [A,,A,]2 | [A,,A,][A,,A,][D,A,][D,A,] [D,A,]2 [D,A,]2 | %6
 [D,A,][D,A,] [E,A,]2- [E,A,][E,A,] [E,A,]2 | [E,G,]2 [A,,A,]6 | %8
 z2 [E,G,]2 [E,G,]>[E,G,] [E,G,]2- | [E,G,][E,G,] A,2 [A,C]2 [A,C]2- | [A,C]2 A,A, A,[A,C] [A,C]2 | %11
 [A,,A,]2 [E,G,]6 | z2 [A,,A,]2 [A,,A,][A,,A,] [A,,A,]2 | [C,A,]2 [D,A,]2 [D,A,]2 [D,A,]2- | %14
 [D,A,]2 [E,A,][E,A,] [E,A,][E,A,] [E,A,]2 | [E,A,]2 [A,,A,]6- | [A,,A,]2 z2 z4 |] %17

